X:104
T: Bánod, bíró, bánod...
M: 2/4
L: 1/4
K: F
gg | dg | dd | 
gf | ed | cc | 
dB | GB | AA | 
dB | GB | GG | 

